X:25
T:Bibbeletanz
R:
O:Alsace - Elsass
A:
S:
B:Chansons populaires de l'Alsace
Z:transcription (partition) : <anamnese@laposte.net>
N:Weckerlin II - p. 100
N:
M:2/4
L:1/8
Q:1/4=130
K:F
c2 c2 | (3BAG F2 | F>A c c/ c/ | B G F2 |
F F F C | F G A2 | c2 c2 | (3BAG F2 ||
